shader_type spatial;
render_mode unshaded;

void vertex() {
	// Called for every vertex the material is visible on.
}

#define ABOVE_WATER_LAYER 2u

void fragment() {
	
}

//void light() {
	// Called for every pixel for every light affecting the material.
	// Uncomment to replace the default light processing function with this one.
//}
